icons/breezeLight/actions/16/document-export.svg

<svg viewBox="0 0 16 16" xmlns="http://www.w3.org/2000/svg"><path d="m3 2v9 1h2 2.0859375l-.671875.671875-.9492187.949219.7070312.707031.9492188-.949219 1.8789062-1.878906-1.8789062-1.8789062-.9492188-.9492188-.7070312.7070312.9492187.9492188.671875.671875h-2.0859375-1v-8h8v10h-3v1h4v-12z" fill="#4d4d4d"/></svg>

<svg xmlns="http://www.w3.org/2000/svg" viewBox="0 0 16 16">
  <defs id="defs3051">
    <style type="text/css" id="current-color-scheme">
      .ColorScheme-Text {
        color:#4d4d4d;
      }
      </style>
  </defs>
 <path style="fill:currentColor;fill-opacity:1;stroke:none" 
       d="M 3 2 L 3 11 L 3 12 L 5 12 L 7.0859375 12 L 6.4140625 12.671875 L 5.4648438 13.621094 L 6.171875 14.328125 L 7.1210938 13.378906 L 9 11.5 L 7.1210938 9.6210938 L 6.171875 8.671875 L 5.4648438 9.3789062 L 6.4140625 10.328125 L 7.0859375 11 L 5 11 L 4 11 L 4 3 L 12 3 L 12 13 L 9 13 L 9 14 L 13 14 L 13 2 L 3 2 z "
     class="ColorScheme-Text"
     />
</svg>
